images/digits-icon-mobile.svg

<svg width="346" height="127" viewBox="0 0 346 127" fill="none" xmlns="http://www.w3.org/2000/svg">
<path fill-rule="evenodd" clip-rule="evenodd" d="M25.1021 54.8098L69.2658 32.3219H166.244L202.219 12.2924L320.898 12.5094L321.301 88.8211L272.439 115.069L73.964 114.997L25.1021 99.1612V54.8098Z" fill="#0D2021" fill-opacity="0.5"/>
<path d="M23.2228 53.7975L67.3864 31.2373L68.1919 30.8034H165.17L200.34 11.2078L201.145 10.774H202.353L321.166 10.9909H323.851V12.4371L324.12 88.7488V89.3273L273.513 116.588L73.2928 116.515L22.2832 100.029V54.2314L23.2228 53.7975ZM70.3396 33.7681L27.7868 55.4606V98.3658L74.7694 113.551L271.231 113.623L318.482 88.1703L318.213 13.8832L203.293 13.6663L168.123 33.1896L167.317 33.6234H166.109L70.3396 33.7681Z" fill="#02F7EA" fill-opacity="0.3"/>
<path d="M160.471 21.1864L197.521 0.650776L198.326 0.216925H235.107V3.18157H200.608L163.559 23.7172L162.753 24.151H139.396V21.1864H160.471ZM297.541 0.216925V3.18157H254.437V0.216925H297.541ZM346 0V16.4863H340.496V2.96465H315.797V0H346ZM346 70.5994H340.496V23.7895H346V70.5994ZM346 80.6503V95.5458L287.607 127H258.612V124.035H285.325L340.362 94.3889V79.9995H345.866V80.6503H346ZM111.953 127V124.035H236.329V127H111.953ZM89.4011 127H58.7953L58.5269 126.928L58.1242 126.783L1.34236 108.344L0 107.911V89.9057H5.50367V106.175L60.4062 123.963H90.7435V126.928H89.4011V127ZM0.134236 50.5436L0.939652 50.1098L57.7215 21.6202L58.5269 21.1864H89.2669V24.151H60.8089L5.77215 51.8452V66.1623H0.134236V50.5436Z" fill="#02F7EA" fill-opacity="0.3"/>
</svg>

<svg width="346" height="127" fill="none" xmlns="http://www.w3.org/2000/svg"><path fill-rule="evenodd" clip-rule="evenodd" d="M25.102 54.81l44.164-22.488h96.978l35.975-20.03 118.679.217.403 76.312-48.862 26.248-198.475-.072-48.862-15.836V54.81z" fill="#0D2021" fill-opacity=".5"/><path d="M23.223 53.797l44.163-22.56.806-.434h96.978l35.17-19.595.805-.434h1.208l118.813.217h2.685v1.446l.269 76.312v.578l-50.607 27.261-200.22-.073-51.01-16.486V54.231l.94-.434zM70.34 33.769L27.787 55.461v42.905l46.982 15.185 196.462.072 47.251-25.453-.269-74.287-114.92-.217-35.17 19.524-.806.433h-1.208l-95.77.145z" fill="#02F7EA" fill-opacity=".3"/><path d="M160.471 21.186L197.521.651l.805-.434h36.781v2.965h-34.499l-37.049 20.535-.806.434h-23.357v-2.965h21.075zM297.541.216v2.966h-43.104V.217h43.104zM346 0v16.486h-5.504V2.965h-24.699V0H346zm0 70.6h-5.504V23.79H346V70.6zm0 10.05v14.896L287.607 127h-28.995v-2.965h26.713l55.037-29.646v-14.39h5.504v.651H346zM111.953 127v-2.965h124.376V127H111.953zm-22.552 0H58.795l-.268-.072-.403-.145-56.782-18.439L0 107.911V89.906h5.504v16.269l54.902 17.788h30.337v2.965h-1.342V127zM.134 50.544l.806-.434 56.78-28.49.806-.434h30.74v2.965H60.809L5.772 51.845v14.317H.134V50.544z" fill="#02F7EA" fill-opacity=".3"/></svg>
